X:61
T:Rogerâ€™s Reel. GS.061
M:2/2
L:1/8
Q:1/2=80
S:George Spencer m/s, Leeds,1831
R:.Reel
O:England
A:Leeds
N:â€™Should auld acquaintance be forgot?â€ â€“ or very nearly, also bits of
N:â€Coming throâ€™ The Ryeâ€.
H:1831
Z:vmp.Cherri Graebe
K:G major
â€œ_No time sig. in msâ€D | G2 G>B A>GAB |\
G>GG>B d2 d>f | G2 G>B A>GA>B |\
G>EE>D G2 G :|!
e | dBBG AGAe | dBBG B2 Be | dBBG AGAB | GEED G2 Ge |!
dBBG AGAe | dBBG B2 Bc | dgBg AGAB | GEED G2G |]

